X:6
T: Ködellik a Mátra
O: Bekölce (Heves), Gál Forgony István (25), 1953.08
L: 1/4
Q: "Parlando" 1/4=80
K: C
d/d/d/e/d/c/ | c/d/A/G/A/HF/ |
A/B/c/(c/{/d}) | (d{/A}) HA>z |
Q: 1/4=72
A/G/A/F/ | D<C z |
F/F/E/(C/{D/}) | D<(D HD) |

